X:1
T:Title
%%score ( 1 2 ) ( 3 4 )
L:1/8
M:3/4
K:Eb
V:1 treble nm="Choir Aahs, Staff"
V:2 treble 
V:3 bass nm="Choir Aahs, Staff-1"
V:4 bass 
V:1
 [GB]2 [GB]2 [EG]2 | E2 [DB]4 | [DB]>[DB] [GB]2 [EG]2 | E2 [EG]>[DF] [DF]2 | %4
w: By~Robert~Lowry,~1914 * *||||
 [DF]>[EG] [FA]2 [EG]2 | [DF]2 [EG]>[FA] [GB]2 | [EB]>[EB] [EA]2 [EG]2 | [DF]2 E>E E2 | %8
w: ||||
 z2 [EG]2 [EG]2 | [EG]>[FA] [GB]2 [GB]2 | [Ge]2 [Bd]2 [Ac]2 | [FA][Ac] [GB]2 [EG]2 | %12
w: ||||
 [GB]2 [Ac]2 [GB]2 | [ce]>[Ac] [GB]2 [EG]2 | [FA][EG] [DF][DB] [Fd]2 | [Ec]2 [DB]2 [Ec]2 | %16
w: ||||
 d2 z2 z2 | [Bd][Ac] [GB]2 [EG]2 | [GB]>[GB] [GB][FA] [DF]2 | [Ac]>[Ac] [Ac][GB] [EG]2 | %20
w: ||||
 [GB]2 [Ge]>[Ge] [Ge]2 | [Bd]2 [Ac]2 [Ac]2 | .e2 z2 z2 | [DF]2 E4 |] %24
w: ||||
V:2
 x6 | x6 | x6 | x6 | x6 | x6 | x6 | x6 | x6 | x6 | x6 | x6 | x6 | x6 | x6 | x6 | FA [Ge]3 [Ge] | %17
 x6 | x6 | x6 | x6 | x6 | E-[Ec] [EB]>[EA] [EG]2 | x6 |] %24
V:3
 [E,E]2 [E,E]2 [E,B,]2 | [E,G,]2 [B,,F,]4 | [B,,F,]>[B,,F,] [E,G,]2 [E,B,]2 | %3
 [E,G,]2 [B,,B,]>[B,,B,] [B,,B,]2 | [B,,B,]>[B,,B,] [B,,B,]2 [B,,B,]2 | %5
 [B,,B,]2 [E,B,]>[E,B,] [E,B,]2 | [E,G,]>[E,G,] [A,,C]2 [B,,B,]2 | [B,,A,]2 [E,G,]>[E,G,] [E,G,]2 | %8
 z6 | z6 | z6 | z6 | z6 | z6 | z6 | z6 | B,2 [E,B,]3 [E,B,] | [E,E][E,E] [E,E]2 [E,B,]2 | %18
 [E,B,]>[E,B,] [B,,B,]2 [B,,B,]2 | [B,,D]>[B,,D] [E,E]2 [E,B,]2 | [E,E]2 [E,B,]>[E,B,] [E,B,]2 | %21
 [G,E]2 [A,E]2 [A,E]2 | CE[K:bass] [G,E]>[A,C] B,2 | [B,,A,]2 [E,G,]4 |] %24
V:4
 x6 | x6 | x6 | x6 | x6 | x6 | x6 | x6 | x6 | x6 | x6 | x6 | x6 | x6 | x6 | x6 | x6 | x6 | x6 | %19
 x6 | x6 | x6 | A,2[K:bass] z2 z2 | x6 |] %24

